public/share/general-share-projects.svg

<?xml version="1.0" encoding="UTF-8" standalone="no"?>
<!DOCTYPE svg PUBLIC "-//W3C//DTD SVG 1.1//EN" "http://www.w3.org/Graphics/SVG/1.1/DTD/svg11.dtd">
<!-- Created with Vectornator (http://vectornator.io/) -->
<svg height="100%" stroke-miterlimit="10" style="fill-rule:nonzero;clip-rule:evenodd;stroke-linecap:round;stroke-linejoin:round;" version="1.1" viewBox="0 0 1024 1024" width="100%" xml:space="preserve" xmlns="http://www.w3.org/2000/svg" xmlns:vectornator="http://vectornator.io" xmlns:xlink="http://www.w3.org/1999/xlink">
<defs/>
<clipPath id="ArtboardFrame">
<rect height="1024" width="1024" x="0" y="0"/>
</clipPath>
<g clip-path="url(#ArtboardFrame)" id="Layer-1" vectornator:layerName="Layer 1">
<g opacity="1" vectornator:layerName="Group 1">
<path d="M163.954 92.8763C73.4048 92.8763-5.68434e-14 166.281-5.68434e-14 256.831L-5.68434e-14 860.046C-5.68434e-14 950.595 73.4048 1024 163.954 1024L767.169 1024C857.719 1024 931.124 950.595 931.124 860.046L931.124 412.244C931.124 399.323 920.649 388.848 907.728 388.848L907.681 388.848C894.76 388.848 884.286 399.323 884.286 412.244L884.286 829.689C884.286 911.128 818.251 977.162 736.812 977.162L194.311 977.162C112.872 977.162 46.8379 911.128 46.838 829.689L46.838 287.188C46.838 205.749 112.872 139.714 194.311 139.714L611.756 139.714C624.677 139.714 635.152 129.24 635.152 116.319L635.152 116.272C635.152 103.351 624.677 92.8763 611.756 92.8763L163.954 92.8763Z" fill="#134e4a" fill-rule="nonzero" opacity="1" stroke="none" vectornator:layerName="Curve 1"/>
<path d="M1001.67 0.39103C1015.51 2.83259 1024.76 16.0369 1022.32 29.8836L992.735 197.662C990.294 211.509 977.089 220.755 963.243 218.313L963.243 218.313C949.396 215.871 940.15 202.667 942.592 188.82L972.176 21.042C974.617 7.19522 987.821-2.05053 1001.67 0.391029L1001.67 0.39103Z" fill="#134e4a" fill-rule="nonzero" opacity="1" stroke="none" vectornator:layerName="Rectangle 1"/>
<path d="M609.512 414.488C599.57 404.546 599.57 388.426 609.512 378.484L980.54 7.45664C990.482-2.48555 1006.6-2.48555 1016.54 7.45664L1016.54 7.45664C1026.49 17.3988 1026.49 33.5183 1016.54 43.4605L645.516 414.488C635.574 424.43 619.454 424.43 609.512 414.488L609.512 414.488Z" fill="#134e4a" fill-rule="nonzero" opacity="1" stroke="none" vectornator:layerName="Rectangle 2"/>
<path d="M1023.61 21.042C1026.05 34.8887 1016.8 48.093 1002.96 50.5346L835.18 80.1184C821.333 82.56 808.129 73.3143 805.687 59.4675L805.687 59.4675C803.245 45.6207 812.491 32.4164 826.338 29.9749L994.116 0.391029C1007.96-2.05053 1021.17 7.19522 1023.61 21.042L1023.61 21.042Z" fill="#134e4a" fill-rule="nonzero" opacity="1" stroke="none" vectornator:layerName="Rectangle 3"/>
</g>
</g>
</svg>

<svg xmlns="http://www.w3.org/2000/svg" xmlns:vectornator="http://vectornator.io" xml:space="preserve" stroke-miterlimit="10" style="fill-rule:nonzero;clip-rule:evenodd;stroke-linecap:round;stroke-linejoin:round" viewBox="0 0 1024 1024"><clipPath id="a"><path d="M0 0h1024v1024H0z"/></clipPath><g vectornator:layerName="Layer 1"><g vectornator:layerName="Group 1" fill="#134e4a" clip-path="url(#a)"><path vectornator:layerName="Curve 1" d="M163.954 92.876C73.404 92.876 0 166.281 0 256.831v603.215C0 950.595 73.405 1024 163.954 1024h603.215c90.55 0 163.955-73.405 163.955-163.954V412.244c0-12.921-10.475-23.396-23.396-23.396h-.047c-12.921 0-23.395 10.475-23.395 23.396v417.445c0 81.439-66.035 147.473-147.474 147.473H194.311c-81.439 0-147.473-66.034-147.473-147.473V287.188c0-81.439 66.034-147.474 147.473-147.474h417.445c12.921 0 23.396-10.474 23.396-23.395v-.047c0-12.921-10.475-23.396-23.396-23.396H163.954Z"/><path vectornator:layerName="Rectangle 1" d="M1001.67.391c13.84 2.442 23.09 15.646 20.65 29.493l-29.585 167.778c-2.441 13.847-15.646 23.093-29.492 20.651-13.847-2.442-23.093-15.646-20.651-29.493l29.584-167.778C974.617 7.195 987.821-2.051 1001.67.391Z"/><path vectornator:layerName="Rectangle 2" d="M609.512 414.488c-9.942-9.942-9.942-26.062 0-36.004L980.54 7.457c9.942-9.943 26.06-9.943 36 0 9.95 9.942 9.95 26.061 0 36.004L645.516 414.488c-9.942 9.942-26.062 9.942-36.004 0Z"/><path vectornator:layerName="Rectangle 3" d="M1023.61 21.042c2.44 13.847-6.81 27.051-20.65 29.493L835.18 80.118c-13.847 2.442-27.051-6.804-29.493-20.65-2.442-13.847 6.804-27.052 20.651-29.493L994.116.39c13.844-2.442 27.054 6.804 29.494 20.651Z"/></g></g></svg>
